svgs/microg_settings.svg

<svg width="192" height="192" viewBox="0 0 192 192" xmlns="http://www.w3.org/2000/svg"><path d="M112.97 112.97a24 24 0 0 1-33.941 0 24 24 0 0 1 0-33.941 24 24 0 0 1 33.941 0" fill="none" stroke="#000" stroke-linecap="round" stroke-linejoin="round" stroke-width="12"/><path d="m80.16 29.054-5.958-.71 5.958.71zm31.68 0-5.958.71 5.958-.71zm34.217 19.755-2.365-5.514 2.365 5.514zm10.081 3.352 5.196-3-5.196 3zm7.896 13.676 5.196-3-5.196 3zm-2.137 10.407-3.594-4.805 3.594 4.805zm0 39.51 3.593-4.805-3.593 4.805zm2.137 10.407 5.196 3-5.196-3zm-7.896 13.676-5.196-3 5.196 3zm-10.081 3.353 2.364-5.515-2.364 5.515zm-34.217 19.755 5.958.71-5.958-.71zm-31.68 0-5.958.71 5.958-.71zM45.943 143.19l-2.365-5.515 2.365 5.515zm-10.081-3.353-5.196 3 5.196-3zm-7.896-13.676 5.196-3-5.196 3zm2.137-10.407 3.594 4.805-3.594-4.805zm0-39.51L26.51 81.05l3.593-4.806zm-2.137-10.407 5.196 3-5.196-3zm7.896-13.676-5.196-3 5.196 3zm10.081-3.352-2.365 5.514 2.365-5.514zm7.849 3.366-2.365 5.514 2.365-5.514zm0 87.65 2.365 5.514-2.365-5.514zM36.235 111.17l-3.593-4.805 3.593 4.805zm76.823 41.535 5.958.71-5.958-.71zm39.854-69.742-3.593-4.805 3.593 4.805zm-16.369-30.074 2.364 5.514-2.364-5.514zm-23.485-13.594-5.958.709 5.958-.71zM88.103 16a14 14 0 0 0-13.902 12.345l11.916 1.418A2 2 0 0 1 88.103 28V16zm15.792 0H88.103v12h15.792V16zm13.902 12.345A14 14 0 0 0 103.895 16v12a2 2 0 0 1 1.986 1.763l11.916-1.418zm1.219 10.24-1.219-10.24-11.916 1.418 1.219 10.24 11.916-1.418zm24.675 4.71-9.513 4.079 4.729 11.029 9.513-4.08-4.729-11.029zm17.642 5.866a14 14 0 0 0-17.642-5.867l4.729 11.03a2 2 0 0 1 2.521.837l10.392-6zm7.896 13.676-7.896-13.676-10.392 6 7.896 13.676 10.392-6zm-3.74 18.212a14 14 0 0 0 3.74-18.212l-10.392 6a2 2 0 0 1-.535 2.602l7.187 9.61zm-8.984 6.718 8.984-6.718-7.187-9.61-8.983 6.718 7.186 9.61zm8.984 23.182-8.984-6.718-7.186 9.61 8.983 6.718 7.187-9.61zm3.74 18.212a14 14 0 0 0-3.74-18.212l-7.187 9.61a2 2 0 0 1 .535 2.602l10.392 6zm-7.896 13.676 7.896-13.676-10.392-6-7.896 13.676 10.392 6zm-17.642 5.867a14 14 0 0 0 17.642-5.867l-10.392-6a2.001 2.001 0 0 1-2.521.838l-4.729 11.029zm-9.513-4.08 9.513 4.08 4.729-11.029-9.512-4.079-4.73 11.028zm-16.381 19.03 1.219-10.24-11.916-1.419-1.219 10.24 11.916 1.419zm-13.902 12.345a14 14 0 0 0 13.902-12.345l-11.916-1.419a2 2 0 0 1-1.986 1.764v12zm-15.792 0h15.792v-12H88.103v12zm-13.902-12.345a14 14 0 0 0 13.902 12.345v-12a2 2 0 0 1-1.986-1.764l-11.916 1.419zm-1.012-8.504 1.012 8.504 11.916-1.419-1.012-8.504-11.916 1.419zm-21.762-20.841-7.85 3.366 4.73 11.029 7.849-3.366-4.73-11.029zm-7.85 3.366a2 2 0 0 1-2.52-.838l-10.392 6a14 14 0 0 0 17.642 5.867l-4.73-11.029zm-2.52-.838-7.895-13.676-10.392 6 7.895 13.676 10.392-6zm-7.895-13.676a2 2 0 0 1 .534-2.602l-7.187-9.61a14 14 0 0 0-3.74 18.212l10.392-6zm.534-2.602 6.132-4.585-7.186-9.61-6.133 4.585 7.187 9.61zm-7.187-39.51 6.133 4.586 7.186-9.61-6.132-4.586-7.187 9.61zm-3.74-18.212a14 14 0 0 0 3.74 18.212l7.187-9.61a2 2 0 0 1-.535-2.602l-10.392-6zm7.896-13.676-7.896 13.676 10.392 6 7.896-13.676-10.392-6zm17.642-5.867a14 14 0 0 0-17.642 5.867l10.392 6a2 2 0 0 1 2.52-.838l4.73-11.03zm7.849 3.366-7.849-3.366-4.73 11.03 7.85 3.365 4.729-11.029zm18.045-18.316-1.012 8.504 11.916 1.419 1.012-8.504-11.916-1.419zm-1.754 27.552c6.078-3.426 11.69-9.502 12.658-17.629l-11.916-1.419c-.382 3.209-2.769 6.415-6.635 8.595l5.893 10.453zm-21.02 1.793c7.284 3.124 15.056 1.57 21.02-1.793l-5.893-10.453c-3.705 2.088-7.481 2.468-10.398 1.217l-4.73 11.03zm-2.428 38.31c0-7.1-2.548-15.022-9.17-19.975l-7.187 9.61c2.717 2.032 4.357 5.801 4.357 10.364h12zm23.448 40.103c-5.965-3.363-13.736-4.917-21.02-1.793l4.729 11.029c2.917-1.251 6.693-.871 10.398 1.218l5.892-10.454zm-32.619-20.128C46.451 111.02 49 103.099 49 95.999H37c0 4.563-1.64 8.333-4.357 10.365l7.186 9.61zm78.678 19.575c-5.536 3.298-10.517 8.982-11.406 16.446l11.916 1.419c.33-2.765 2.318-5.582 5.632-7.557l-6.142-10.308zm20.402-1.953c-7.094-3.042-14.669-1.463-20.402 1.953l6.142 10.308c3.382-2.015 6.872-2.372 9.53-1.233l4.73-11.028zM85.105 153.73c-.967-8.127-6.58-14.202-12.658-17.63l-5.893 10.455c3.867 2.179 6.253 5.385 6.635 8.594l11.916-1.42zM141 95.999c0 6.389 2.398 13.414 8.32 17.842l7.186-9.61c-2.132-1.594-3.506-4.564-3.506-8.232h-12zm8.32-17.842C143.397 82.585 141 89.61 141 95.999h12c0-3.668 1.374-6.638 3.506-8.233l-7.186-9.61zM118.506 56.45c5.733 3.416 13.308 4.994 20.401 1.953l-4.729-11.03c-2.658 1.14-6.148.783-9.53-1.232l-6.142 10.309zM107.1 40.004c.89 7.464 5.87 13.148 11.406 16.446l6.142-10.31c-3.314-1.974-5.303-4.79-5.632-7.555L107.1 40.003z"/></svg>

<?xml version="1.0" encoding="UTF-8" standalone="no"?><svg xmlns:android="http://schemas.android.com/apk/res/android" height="192" width="192" xmlns="http://www.w3.org/2000/svg">
  <path d="m112.97,112.97a24,24 0,0 1,-33.941 0,24 24,0 0,1 -0,-33.941 24,24 0,0 1,33.941 -0" fill="#000000" fill-opacity="0.0" stroke="#000" stroke-linecap="round" stroke-linejoin="round" stroke-width="12"/>
  <path d="m80.16,29.054 l-5.958,-0.709 5.958,0.709zM111.84,29.054 L105.882,29.763 111.84,29.054zM146.057,48.809 L143.692,43.295 146.057,48.809zM156.138,52.161 L161.334,49.161 156.138,52.161zM164.034,65.837 L169.23,62.837 164.034,65.837zM161.897,76.244 L158.303,71.439 161.897,76.244zM161.897,115.754 L165.49,110.949 161.897,115.754zM164.034,126.161 L169.23,129.161 164.034,126.161zM156.138,139.837 L150.942,136.837 156.138,139.837zM146.057,143.19 L148.421,137.675 146.057,143.19zM111.84,162.945 L117.798,163.654 111.84,162.945zM80.16,162.945 L74.202,163.654 80.16,162.945zM45.943,143.19 L43.578,137.675 45.943,143.19zM35.862,139.837 L30.666,142.837 35.862,139.837zM27.966,126.161 L33.162,123.161 27.966,126.161zM30.103,115.754 L33.697,120.559 30.103,115.754zM30.103,76.244 L26.51,81.049 30.103,76.244zM27.966,65.837 L33.162,68.837 27.966,65.837zM35.862,52.161 L30.666,49.161 35.862,52.161zM45.943,48.809 L43.578,54.323 45.943,48.809zM53.792,52.175 L51.427,57.689 53.792,52.175zM53.792,139.825 L56.157,145.339 53.792,139.825zM36.235,111.17 L32.642,106.365 36.235,111.17zM113.058,152.705 L119.016,153.415 113.058,152.705zM152.912,82.963 L149.319,78.158 152.912,82.963zM136.543,52.889 L138.907,58.403 136.543,52.889zM113.058,39.295 L107.1,40.004 113.058,39.295zM88.103,16c-7.092,0 -13.064,5.303 -13.902,12.345l11.916,1.419c0.12,-1.006 0.973,-1.764 1.986,-1.764v-12zM103.895,16h-15.792v12h15.792v-12zM117.797,28.345c-0.839,-7.042 -6.81,-12.345 -13.902,-12.345v12c1.013,0 1.866,0.758 1.986,1.764l11.916,-1.419zM119.016,38.585 L117.797,28.345 105.881,29.763 107.1,40.003 119.016,38.585zM143.691,43.294 L134.178,47.374 138.907,58.403 148.42,54.323 143.691,43.294zM161.333,49.161c-3.546,-6.142 -11.124,-8.662 -17.642,-5.867l4.729,11.029c0.932,-0.399 2.014,-0.039 2.521,0.838l10.392,-6zM169.229,62.837 L161.333,49.161 150.941,55.161 158.837,68.837 169.229,62.837zM165.489,81.049c5.679,-4.247 7.286,-12.07 3.74,-18.212l-10.392,6c0.506,0.877 0.277,1.995 -0.535,2.602l7.187,9.61zM156.505,87.767 L165.489,81.049 158.302,71.439 149.319,78.157 156.505,87.767zM165.489,110.949 L156.505,104.231 149.319,113.841 158.302,120.559 165.489,110.949zM169.229,129.161c3.546,-6.142 1.939,-13.965 -3.74,-18.212l-7.187,9.61c0.812,0.607 1.041,1.725 0.535,2.602l10.392,6zM161.333,142.837 L169.229,129.161 158.837,123.161 150.941,136.837 161.333,142.837zM143.691,148.704c6.518,2.795 14.096,0.275 17.642,-5.867l-10.392,-6c-0.507,0.877 -1.589,1.237 -2.521,0.838l-4.729,11.029zM134.178,144.624 L143.691,148.704 148.42,137.675 138.908,133.596 134.178,144.624zM117.797,163.654 L119.016,153.414 107.1,151.995 105.881,162.235 117.797,163.654zM103.895,175.999c7.092,0 13.063,-5.303 13.902,-12.345l-11.916,-1.419c-0.12,1.006 -0.973,1.764 -1.986,1.764v12zM88.103,175.999h15.792v-12h-15.792v12zM74.201,163.654c0.838,7.042 6.81,12.345 13.902,12.345v-12c-1.013,0 -1.866,-0.758 -1.986,-1.764l-11.916,1.419zM73.189,155.15 L74.201,163.654 86.117,162.235 85.105,153.731 73.189,155.15zM51.427,134.309 L43.578,137.675 48.307,148.704 56.156,145.338 51.427,134.309zM43.578,137.675c-0.931,0.399 -2.014,0.039 -2.52,-0.838l-10.392,6c3.546,6.142 11.124,8.662 17.642,5.867l-4.729,-11.029zM41.057,136.837 L33.162,123.161 22.77,129.161 30.665,142.837 41.057,136.837zM33.162,123.161c-0.507,-0.877 -0.277,-1.995 0.534,-2.602l-7.187,-9.61c-5.679,4.247 -7.286,12.07 -3.74,18.212l10.392,-6zM33.696,120.559 L39.828,115.974 32.642,106.364 26.509,110.949 33.696,120.559zM26.509,81.049 L32.642,85.635 39.828,76.024 33.696,71.439 26.509,81.049zM22.769,62.837c-3.546,6.142 -1.939,13.965 3.74,18.212l7.186,-9.61c-0.811,-0.607 -1.041,-1.724 -0.534,-2.602l-10.392,-6zM30.665,49.161 L22.769,62.837 33.161,68.837 41.057,55.161 30.665,49.161zM48.307,43.294c-6.518,-2.795 -14.096,-0.275 -17.642,5.867l10.392,6c0.507,-0.877 1.589,-1.237 2.52,-0.838l4.729,-11.029zM56.156,46.66 L48.307,43.294 43.578,54.323 51.427,57.689 56.156,46.66zM74.201,28.344 L73.189,36.848 85.105,38.267 86.117,29.763 74.201,28.344zM72.447,55.896c6.078,-3.426 11.69,-9.502 12.658,-17.629l-11.916,-1.419c-0.382,3.209 -2.768,6.415 -6.635,8.594l5.893,10.453zM51.427,57.689c7.285,3.124 15.056,1.57 21.02,-1.793l-5.893,-10.453c-3.705,2.088 -7.481,2.468 -10.398,1.217l-4.729,11.029zM48.999,95.999c0,-7.1 -2.549,-15.022 -9.171,-19.975l-7.187,9.61c2.717,2.032 4.358,5.801 4.358,10.364h12zM72.447,136.102c-5.965,-3.363 -13.736,-4.917 -21.021,-1.793l4.729,11.029c2.917,-1.251 6.694,-0.871 10.398,1.218l5.893,-10.454zM39.828,115.974c6.623,-4.953 9.171,-12.875 9.171,-19.975h-12c0,4.563 -1.64,8.333 -4.358,10.365l7.187,9.61zM118.506,135.549c-5.536,3.298 -10.517,8.982 -11.406,16.446l11.916,1.419c0.329,-2.765 2.318,-5.582 5.632,-7.557l-6.142,-10.308zM138.908,133.596c-7.094,-3.042 -14.669,-1.463 -20.402,1.953l6.142,10.308c3.382,-2.015 6.872,-2.372 9.53,-1.233l4.73,-11.028zM85.105,153.731c-0.967,-8.127 -6.579,-14.202 -12.658,-17.629l-5.893,10.454c3.866,2.179 6.253,5.385 6.635,8.594l11.916,-1.419zM140.999,95.999c0,6.389 2.398,13.414 8.32,17.842l7.186,-9.61c-2.132,-1.594 -3.506,-4.564 -3.506,-8.232h-12zM149.319,78.157c-5.922,4.428 -8.32,11.453 -8.32,17.842h12c0,-3.668 1.374,-6.638 3.506,-8.232l-7.186,-9.61zM118.506,56.45c5.733,3.416 13.308,4.995 20.401,1.953l-4.729,-11.029c-2.658,1.14 -6.148,0.782 -9.53,-1.233l-6.142,10.309zM107.1,40.004c0.889,7.464 5.87,13.148 11.406,16.446l6.142,-10.309c-3.314,-1.975 -5.303,-4.791 -5.632,-7.556l-11.916,1.418z" fill="#000000" fill-opacity="1.0"/>
</svg>
